static/images/advePrebuildSelected.svg

<svg height="87" viewBox="0 0 86 87" width="86" xmlns="http://www.w3.org/2000/svg"><g fill="none" fill-rule="evenodd"><circle cx="43" cy="43" fill="#02afde" r="43"/><g fill="#fff"><path d="m44 45h2v-10h-2z"/><path d="m40 45h2v-8h-2z"/><path d="m36 45h2v-6h-2z"/><path d="m61.7978103 61.7853717-10.7801239-11.0866216c2.7496244-2.7269946 4.4530857-6.4863875 4.4530857-10.6324812 0-8.3079711-6.8341589-15.0662689-15.2353861-15.0662689-8.4012271 0-15.235386 6.7582978-15.235386 15.0662689 0 8.3079712 6.8341589 15.066269 15.235386 15.066269 3.687689 0 7.0721211-1.303591 9.7100194-3.4666768l10.8062417 11.1138844c.1421969.1470755.3322765.2202545.5230816.2202545.1813736 0 .3620218-.066722.5027677-.2001661.2887468-.2747801.2974528-.7289205.0203139-1.0144622zm-21.5624243-8.0877166c-7.6010066 0-13.7843969-6.1147529-13.7843969-13.6313862s6.1833903-13.6313861 13.7843969-13.6313861c7.6010067 0 13.7843969 6.1147528 13.7843969 13.6313861s-6.1841157 13.6313862-13.7843969 13.6313862z" fill-rule="nonzero" stroke="#fff"/></g></g></svg>

<?xml version="1.0" encoding="UTF-8"?>
<svg width="86px" height="87px" viewBox="0 0 86 87" version="1.1" xmlns="http://www.w3.org/2000/svg" xmlns:xlink="http://www.w3.org/1999/xlink">
    <!-- Generator: sketchtool 46.2 (44496) - http://www.bohemiancoding.com/sketch -->
    <title>A74163FA-E9EA-4359-AA2D-5F48A4FE508C</title>
    <desc>Created with sketchtool.</desc>
    <defs></defs>
    <g id="Symbols" stroke="none" stroke-width="1" fill="none" fill-rule="evenodd">
        <g id="ic/advertisement">
            <g>
                <circle id="Oval-4" fill="#02AFDE" cx="43" cy="43" r="43"></circle>
                <polygon id="Fill-7" fill="#FFFFFF" points="44 45 46 45 46 35 44 35"></polygon>
                <polygon id="Fill-8" fill="#FFFFFF" points="40 45 42 45 42 37 40 37"></polygon>
                <polygon id="Fill-9" fill="#FFFFFF" points="36 45 38 45 38 39 36 39"></polygon>
                <path d="M61.7978103,61.7853717 L51.0176864,50.6987501 C53.7673108,47.9717555 55.4707721,44.2123626 55.4707721,40.0662689 C55.4707721,31.7582978 48.6366132,25 40.235386,25 C31.8341589,25 25,31.7582978 25,40.0662689 C25,48.3742401 31.8341589,55.1325379 40.235386,55.1325379 C43.923075,55.1325379 47.3075071,53.8289469 49.9454054,51.6658611 L60.7516471,62.7797455 C60.893844,62.926821 61.0839236,63 61.2747287,63 C61.4561023,63 61.6367505,62.933278 61.7774964,62.7998339 C62.0662432,62.5250538 62.0749492,62.0709134 61.7978103,61.7853717 Z M40.235386,53.6976551 C32.6343794,53.6976551 26.4509891,47.5829022 26.4509891,40.0662689 C26.4509891,32.5496356 32.6343794,26.4348828 40.235386,26.4348828 C47.8363927,26.4348828 54.0197829,32.5496356 54.0197829,40.0662689 C54.0197829,47.5829022 47.8356672,53.6976551 40.235386,53.6976551 Z" id="Shape" stroke="#FFFFFF" fill="#FFFFFF" fill-rule="nonzero"></path>
            </g>
        </g>
    </g>
</svg>
